dist/svg/chart-dot.svg

<!-- Generated by Trend Micro Style Portal -->
<svg version="1.1" xmlns="http://www.w3.org/2000/svg" width="16" height="16" viewBox="0 0 16 16">
  <title>chart-dot</title>
  <path fill="rgb(34,34,34)" d="M16 14v1h-16v-14h1v13h15zM4.5 12c0.828 0 1.5-0.672 1.5-1.5s-0.672-1.5-1.5-1.5-1.5 0.672-1.5 1.5 0.672 1.5 1.5 1.5zM8.5 6c0.828 0 1.5-0.672 1.5-1.5s-0.672-1.5-1.5-1.5-1.5 0.672-1.5 1.5 0.672 1.5 1.5 1.5zM12.5 10c0.828 0 1.5-0.672 1.5-1.5s-0.672-1.5-1.5-1.5-1.5 0.672-1.5 1.5 0.672 1.5 1.5 1.5z"></path>
</svg>

<svg width="16" height="16" viewBox="0 0 16 16" fill="rgb(34, 34, 34)" xmlns="http://www.w3.org/2000/svg"><title>chart-dot</title><path d="M16 14V15H0V1H1V14H16ZM4.5 12C5.328 12 6 11.328 6 10.5C6 9.672 5.328 9 4.5 9C3.672 9 3 9.672 3 10.5C3 11.328 3.672 12 4.5 12ZM8.5 6C9.328 6 10 5.328 10 4.5C10 3.672 9.328 3 8.5 3C7.672 3 7 3.672 7 4.5C7 5.328 7.672 6 8.5 6ZM12.5 10C13.328 10 14 9.328 14 8.5C14 7.672 13.328 7 12.5 7C11.672 7 11 7.672 11 8.5C11 9.328 11.672 10 12.5 10Z" fill="rgb(34, 34, 34)" fill-opacity="1.00"/></svg>
